X:1
T:[ID 2-78]
T:[ID 2-78]
T:Bezeichnung standardisiert: Menuet [mit Trio] Menuet Con Trio 2.
T:Urheber unbekannt Datum in der hier transkribierten schriftlichen Quelle: 1767
C:Urheber unbekannt
C:Datum in der hier transkribierten schriftlichen Quelle: 1767
L:1/8
M:3/4
K:A
V:1 treble 
V:1
 c2 c2 c2 | (3dcB{B} c4 | a2 a2 a2 | (3bag{g} a4 | (3ABc BA G2 | (3ABc BA G2 | c2 dcBA |{A} G6 :: %8
 E2 c2 c2 | cBAGFE | D2 d2 d2 | dcBAGF | E2 e2 e2 | efge a2 | cd e2 ed |{e} d6 :| %16
[M:3/4]"^Trio" !fermata!C4 D2 | C2 DE F2 | B2 A2 G2 | A2 ED C2 | B2 A2 G2 | f2 e2 d2 | e2 B2 A2 | %23
{A} G6 :: c4 BA | B2 A2 G2 | c4 BA | B2 A2 G2 | C4 D2 | C2 DE F2 | Ac e2 d2 |{e} d6 :| %32

